outputs/icons/image/adjustments_sharp.svg

<svg xmlns="http://www.w3.org/2000/svg" width="1200" height="1200" fill="none"><g clip-path="url(#a)"><path fill="#000" d="M150 850v100h300V850zm0-600v100h500V250zm500 800V950h400V850H650V750H550v300zM350 450v100H150v100h200v100h100V450zm700 200V550H550v100zM750 450h100V350h200V250H850V150H750z"/></g><defs><clipPath id="a"><path fill="#fff" d="M0 0h1200v1200H0z"/></clipPath></defs></svg>

<svg width="1200" height="1200" viewBox="0 0 1200 1200" fill="none" xmlns="http://www.w3.org/2000/svg"><g clip-path="url(#clip0_124_531)"><path d="M150 850V950H450V850H150ZM150 250V350H650V250H150ZM650 1050V950H1050V850H650V750H550V1050H650ZM350 450V550H150V650H350V750H450V450H350ZM1050 650V550H550V650H1050ZM750 450H850V350H1050V250H850V150H750V450Z" fill="black"/></g><defs><clipPath id="clip0_124_531"><path width="24" fill="white" d="M0 0H1200V1200H0V0z"/></clipPath></defs></svg>
